X:1
T:Balance the Straw
A:Field Town
O:English
S:Bacon
R:Jig
M:6/8
Q:3/8=104
P:A(A2B2)4
K:G
P:A
A | d2f fef | g2e efg | afa geg | f2d d2 |]
P:B
fg | a2a a2d | g2f f2e | a2a a2d | g2f e2A |
d2f fef | g2e efg | afa geg | f2d d2 |]
